svg/furkot/icomoon/search.svg

<svg viewBox="0 0 512 512" xmlns="http://www.w3.org/2000/svg"><path d="m496.128 435.696-121.28-103.144c-12.536-11.28-25.944-16.464-36.776-15.96 28.624-33.536 45.92-77.04 45.92-124.584 0-106.04-85.96-192-192-192s-192 85.96-192 192 85.96 192 192 192c47.552 0 91.056-17.296 124.592-45.92-.504 10.832 4.68 24.24 15.96 36.776l103.144 121.28c17.664 19.624 46.512 21.28 64.112 3.68s15.944-46.448-3.68-64.112zm-304.128-115.696c-70.688 0-128-57.304-128-128s57.304-128 128-128 128 57.304 128 128-57.304 128-128 128z"/></svg>

<svg xmlns="http://www.w3.org/2000/svg" viewBox="0 0 512 512"><path d="M496.128 435.696L374.848 332.552C362.312 321.272 348.904 316.088 338.072 316.592 366.696 283.056 383.992 239.552 383.992 192.008 383.992 85.968 298.032 0.008 191.992 0.008S-0.008 85.968-0.008 192.008 85.952 384.008 191.992 384.008C239.544 384.008 283.048 366.712 316.584 338.088 316.08 348.92 321.264 362.328 332.544 374.864L435.688 496.144C453.352 515.768 482.2 517.424 499.8 499.824S515.744 453.376 496.12 435.712ZM192 320C121.312 320 64 262.696 64 192S121.304 64 192 64 320 121.304 320 192 262.696 320 192 320Z"/></svg>
